static/cards/FrenchDeck/default/card_spades_03.svg

<svg width="219" height="304" viewBox="0 0 219 304" fill="none" xmlns="http://www.w3.org/2000/svg">
<g filter="url(#filter0_d_18_667)">
<g clip-path="url(#clip0_18_667)">
<rect x="8" y="4" width="203" height="288" rx="10" fill="white"/>
<path d="M16.311 38.3945C16.311 37.4937 16.9316 36.853 17.8125 36.853C18.5132 36.853 18.9536 37.2134 19.4741 38.2344C20.5151 40.3765 22.5972 41.5776 25.3198 41.5776C28.9033 41.5776 31.1855 39.6157 31.1855 36.5527C31.1855 33.4897 28.8433 31.4277 25.3599 31.4277H22.8574C21.9365 31.4277 21.2559 30.7671 21.2559 29.9062C21.2559 29.0254 21.8965 28.4048 22.8574 28.4048H25.2197C28.1426 28.4048 30.2646 26.4229 30.2646 23.6802C30.2646 20.9375 28.2026 19.0957 25.1396 19.0957C22.7573 19.0957 20.9556 20.2769 20.1548 22.3389C19.7544 23.4399 19.2539 23.8604 18.4731 23.8604C17.5522 23.8604 16.9517 23.1997 16.9517 22.1987C16.9517 19.0957 20.2949 16.0928 25.2197 16.0928C30.2246 16.0928 33.7881 19.0757 33.7881 23.2397C33.7881 26.2627 31.5259 29.1455 28.7432 29.626V29.8262C32.1265 30.2065 34.709 33.1694 34.709 36.6128C34.709 41.2974 30.8252 44.5806 25.2598 44.5806C20.0947 44.5806 16.311 41.4575 16.311 38.3945Z" fill="#211C1D"/>
<path d="M24.2375 72C24.0275 72 23.8572 71.8365 23.8572 71.6348C23.8572 71.2053 24.9342 68.3825 25.1943 66.4832C25.2256 66.2548 24.9357 66.1637 24.8047 66.3495C24.177 67.2399 23.5441 68.1922 21.8225 68.2149C18.615 68.2572 16.7672 65.2101 17.7761 62.4373C18.2708 61.0778 25.0754 52 26 52C26.9245 52 33.7292 61.0778 34.2239 62.4373C35.2328 65.2101 33.385 68.2572 30.1775 68.2149C28.4559 68.1922 27.823 67.2399 27.1953 66.3495C27.0643 66.1637 26.7744 66.2548 26.8057 66.4832C27.0658 68.3825 28.1428 71.2053 28.1428 71.6348C28.1428 71.8365 27.9725 72 27.7625 72H24.2375Z" fill="#211C1D"/>
<path d="M202.689 257.605C202.689 258.506 202.068 259.147 201.188 259.147C200.487 259.147 200.046 258.787 199.526 257.766C198.485 255.624 196.403 254.422 193.68 254.422C190.097 254.422 187.814 256.384 187.814 259.447C187.814 262.51 190.157 264.572 193.64 264.572L196.143 264.572C197.063 264.572 197.744 265.233 197.744 266.094C197.744 266.975 197.104 267.595 196.143 267.595L193.78 267.595C190.857 267.595 188.735 269.577 188.735 272.32C188.735 275.062 190.797 276.904 193.86 276.904C196.243 276.904 198.044 275.723 198.845 273.661C199.246 272.56 199.746 272.14 200.527 272.14C201.448 272.14 202.048 272.8 202.048 273.801C202.048 276.904 198.705 279.907 193.78 279.907C188.775 279.907 185.212 276.924 185.212 272.76C185.212 269.737 187.474 266.854 190.257 266.374L190.257 266.174C186.874 265.793 184.291 262.831 184.291 259.387C184.291 254.703 188.175 251.419 193.74 251.419C198.905 251.419 202.689 254.542 202.689 257.605Z" fill="#211C1D"/>
<path d="M194.762 224C194.973 224 195.143 224.164 195.143 224.365C195.143 224.795 194.066 227.617 193.806 229.517C193.774 229.745 194.064 229.836 194.195 229.65C194.823 228.76 195.456 227.808 197.178 227.785C200.385 227.743 202.233 230.79 201.224 233.563C200.729 234.922 193.925 244 193 244C192.075 244 185.271 234.922 184.776 233.563C183.767 230.79 185.615 227.743 188.823 227.785C190.544 227.808 191.177 228.76 191.805 229.65C191.936 229.836 192.226 229.745 192.194 229.517C191.934 227.617 190.857 224.795 190.857 224.365C190.857 224.164 191.027 224 191.238 224L194.762 224Z" fill="#211C1D"/>
<path d="M105.353 76C104.859 76 104.458 75.6076 104.458 75.1235C104.458 74.0926 106.992 67.318 107.604 62.7596C107.678 62.2115 106.996 61.993 106.688 62.4389C105.211 64.5759 103.721 66.8613 99.6706 66.9157C92.1234 67.0172 87.7757 59.7041 90.1497 53.0496C91.3137 49.7867 107.325 28 109.5 28C111.675 28 127.686 49.7867 128.85 53.0496C131.224 59.7041 126.877 67.0172 119.329 66.9157C115.279 66.8613 113.789 64.5759 112.312 62.4389C112.004 61.993 111.322 62.2115 111.396 62.7596C112.008 67.318 114.542 74.0926 114.542 75.1235C114.542 75.6076 114.141 76 113.647 76H105.353Z" fill="#211C1D"/>
<path d="M105.353 172C104.859 172 104.458 171.608 104.458 171.123C104.458 170.093 106.992 163.318 107.604 158.76C107.678 158.211 106.996 157.993 106.688 158.439C105.211 160.576 103.721 162.861 99.6706 162.916C92.1234 163.017 87.7757 155.704 90.1497 149.05C91.3137 145.787 107.325 124 109.5 124C111.675 124 127.686 145.787 128.85 149.05C131.224 155.704 126.877 163.017 119.329 162.916C115.279 162.861 113.789 160.576 112.312 158.439C112.004 157.993 111.322 158.211 111.396 158.76C112.008 163.318 114.542 170.093 114.542 171.123C114.542 171.608 114.141 172 113.647 172H105.353Z" fill="#211C1D"/>
<path d="M105.353 220C104.859 220 104.458 220.392 104.458 220.877C104.458 221.907 106.992 228.682 107.604 233.24C107.678 233.789 106.996 234.007 106.688 233.561C105.211 231.424 103.721 229.139 99.6706 229.084C92.1234 228.983 87.7757 236.296 90.1497 242.95C91.3137 246.213 107.325 268 109.5 268C111.675 268 127.686 246.213 128.85 242.95C131.224 236.296 126.877 228.983 119.329 229.084C115.279 229.139 113.789 231.424 112.312 233.561C112.004 234.007 111.322 233.789 111.396 233.24C112.008 228.682 114.542 221.907 114.542 220.877C114.542 220.392 114.141 220 113.647 220H105.353Z" fill="#211C1D"/>
</g>
</g>
<defs>
<filter id="filter0_d_18_667" x="0" y="0" width="219" height="304" filterUnits="userSpaceOnUse" color-interpolation-filters="sRGB">
<feFlood flood-opacity="0" result="BackgroundImageFix"/>
<feColorMatrix in="SourceAlpha" type="matrix" values="0 0 0 0 0 0 0 0 0 0 0 0 0 0 0 0 0 0 127 0" result="hardAlpha"/>
<feOffset dy="4"/>
<feGaussianBlur stdDeviation="4"/>
<feComposite in2="hardAlpha" operator="out"/>
<feColorMatrix type="matrix" values="0 0 0 0 0.614771 0 0 0 0 0.70094 0 0 0 0 0.806257 0 0 0 1 0"/>
<feBlend mode="normal" in2="BackgroundImageFix" result="effect1_dropShadow_18_667"/>
<feBlend mode="normal" in="SourceGraphic" in2="effect1_dropShadow_18_667" result="shape"/>
</filter>
<clipPath id="clip0_18_667">
<rect x="8" y="4" width="203" height="288" rx="10" fill="white"/>
</clipPath>
</defs>
</svg>

<svg xmlns="http://www.w3.org/2000/svg" width="219" height="304" fill="none" viewBox="0 0 219 304"><g filter="url(#a)"><g clip-path="url(#b)"><rect width="203" height="288" x="8" y="4" fill="#fff" rx="10"/><path fill="#211c1d" d="M16.311 38.395c0-.901.62-1.542 1.502-1.542.7 0 1.14.36 1.661 1.381 1.041 2.142 3.123 3.344 5.846 3.344 3.583 0 5.866-1.962 5.866-5.025s-2.343-5.125-5.826-5.125h-2.503c-.92 0-1.601-.66-1.601-1.522 0-.88.64-1.501 1.601-1.501h2.363c2.923 0 5.045-1.982 5.045-4.725s-2.062-4.584-5.125-4.584c-2.383 0-4.184 1.18-4.985 3.243-.4 1.1-.901 1.521-1.682 1.521-.92 0-1.521-.66-1.521-1.661 0-3.103 3.343-6.106 8.268-6.106 5.005 0 8.568 2.983 8.568 7.147 0 3.023-2.262 5.906-5.045 6.386v.2c3.384.38 5.966 3.343 5.966 6.787 0 4.684-3.884 7.968-9.45 7.968-5.164 0-8.948-3.123-8.948-6.187M24.238 72a.373.373 0 0 1-.38-.365c0-.43 1.076-3.253 1.336-5.152.032-.228-.258-.32-.39-.133-.627.89-1.26 1.842-2.981 1.865-3.208.042-5.056-3.005-4.047-5.778C18.271 61.077 25.076 52 26 52s7.73 9.078 8.224 10.437c1.009 2.773-.839 5.82-4.046 5.778-1.722-.023-2.355-.975-2.983-1.865-.13-.186-.42-.095-.39.133.26 1.9 1.338 4.722 1.338 5.152 0 .201-.17.365-.38.365zM202.689 257.605c0 .901-.621 1.542-1.501 1.542-.701 0-1.142-.36-1.662-1.381-1.041-2.142-3.123-3.344-5.846-3.344-3.583 0-5.866 1.962-5.866 5.025s2.343 5.125 5.826 5.125h2.503c.92 0 1.601.661 1.601 1.522 0 .881-.64 1.501-1.601 1.501h-2.363c-2.923 0-5.045 1.982-5.045 4.725s2.062 4.584 5.125 4.584c2.383 0 4.184-1.181 4.985-3.243.401-1.101.901-1.521 1.682-1.521.921 0 1.521.66 1.521 1.661 0 3.103-3.343 6.106-8.268 6.106-5.005 0-8.568-2.983-8.568-7.147 0-3.023 2.262-5.906 5.045-6.386v-.2c-3.383-.381-5.966-3.343-5.966-6.787 0-4.684 3.884-7.968 9.449-7.968 5.165 0 8.949 3.123 8.949 6.186M194.762 224c.211 0 .381.164.381.365 0 .43-1.077 3.252-1.337 5.152-.032.228.258.319.389.133.628-.89 1.261-1.842 2.983-1.865 3.207-.042 5.055 3.005 4.046 5.778C200.729 234.922 193.925 244 193 244s-7.729-9.078-8.224-10.437c-1.009-2.773.839-5.82 4.047-5.778 1.721.023 2.354.975 2.982 1.865.131.186.421.095.389-.133-.26-1.9-1.337-4.722-1.337-5.152 0-.201.17-.365.381-.365zM105.353 76a.886.886 0 0 1-.895-.876c0-1.031 2.534-7.806 3.146-12.364.074-.548-.608-.767-.916-.321-1.477 2.137-2.967 4.422-7.017 4.477-7.548.101-11.895-7.212-9.521-13.866C91.314 49.787 107.325 28 109.5 28s18.186 21.787 19.35 25.05c2.374 6.654-1.973 13.967-9.521 13.866-4.05-.055-5.54-2.34-7.017-4.477-.308-.446-.99-.227-.916.32.612 4.559 3.146 11.334 3.146 12.365a.886.886 0 0 1-.895.876zM105.353 172a.886.886 0 0 1-.895-.877c0-1.03 2.534-7.805 3.146-12.363.074-.549-.608-.767-.916-.321-1.477 2.137-2.967 4.422-7.017 4.477-7.548.101-11.895-7.212-9.521-13.866 1.164-3.263 17.175-25.05 19.35-25.05s18.186 21.787 19.35 25.05c2.374 6.654-1.973 13.967-9.521 13.866-4.05-.055-5.54-2.34-7.017-4.477-.308-.446-.99-.228-.916.321.612 4.558 3.146 11.333 3.146 12.363a.886.886 0 0 1-.895.877zM105.353 220a.886.886 0 0 0-.895.877c0 1.03 2.534 7.805 3.146 12.363.074.549-.608.767-.916.321-1.477-2.137-2.967-4.422-7.017-4.477-7.548-.101-11.895 7.212-9.521 13.866 1.164 3.263 17.175 25.05 19.35 25.05s18.186-21.787 19.35-25.05c2.374-6.654-1.973-13.967-9.521-13.866-4.05.055-5.54 2.34-7.017 4.477-.308.446-.99.228-.916-.321.612-4.558 3.146-11.333 3.146-12.363a.886.886 0 0 0-.895-.877z"/></g></g><defs><clipPath id="b"><rect width="203" height="288" x="8" y="4" fill="#fff" rx="10"/></clipPath><filter id="a" width="219" height="304" x="0" y="0" color-interpolation-filters="sRGB" filterUnits="userSpaceOnUse"><feFlood flood-opacity="0" result="BackgroundImageFix"/><feColorMatrix in="SourceAlpha" result="hardAlpha" values="0 0 0 0 0 0 0 0 0 0 0 0 0 0 0 0 0 0 127 0"/><feOffset dy="4"/><feGaussianBlur stdDeviation="4"/><feComposite in2="hardAlpha" operator="out"/><feColorMatrix values="0 0 0 0 0.614771 0 0 0 0 0.70094 0 0 0 0 0.806257 0 0 0 1 0"/><feBlend in2="BackgroundImageFix" result="effect1_dropShadow_18_667"/><feBlend in="SourceGraphic" in2="effect1_dropShadow_18_667" result="shape"/></filter></defs></svg>
